archdroid-icon-theme/Archdroid-Amber/places/scalable/folder-collection-android.svg

<svg fill="#FFC107" height="48" viewBox="0 0 48 48" width="48" xmlns="http://www.w3.org/2000/svg"><g fill="#FFC107"><path d="m8 12h-4v28c0 2.21 1.79 4 4 4h28v-4h-28z"/><path d="m16 4c-2.21 0-4 1.79-4 4v24c0 2.21 1.79 4 4 4h24c2.21 0 4-1.79 4-4v-24c0-2.21-1.79-4-4-4zm8.580078 6c.106245 0 .213676.039848.294922.121094l1.236328 1.238281c.670799-.333316 1.420745-.525391 2.220703-.525391.795792 0 1.542353.192335 2.208985.521485l1.232422-1.228516c.162491-.162491.425399-.162491.58789 0 .162492.162492.162492.423446 0 .585938l-1.08789 1.08789c1.245768.908286 2.058593 2.374956 2.058593 4.033203h-9.998047c0-1.65408.807487-3.12075 2.044922-4.033203l-1.091797-1.091797c-.162491-.162491-.162491-.425399 0-.58789.081246-.081246.186725-.121094.292969-.121094zm1.253906 3.333984v.833985h.832032v-.833985zm4.166016 0v.833985h.832031v-.833985zm-8.75 3.333985c.691631 0 1.25.558369 1.25 1.25v5.832031c0 .691631-.558369 1.25-1.25 1.25s-1.25-.558369-1.25-1.25v-5.832031c0-.691631.558369-1.25 1.25-1.25zm2.083984 0h9.998047v8.332031c0 .458309-.373722.833984-.832031.833984h-.833984v2.916016c0 .691631-.55837 1.25-1.25 1.25-.691631 0-1.25-.558369-1.25-1.25v-2.916016h-1.666016v2.916016c0 .691631-.558369 1.25-1.25 1.25s-1.25-.558369-1.25-1.25v-2.916016h-.833984c-.45831 0-.832032-.375675-.832032-.833984zm12.082032 0c.69163 0 1.25.558369 1.25 1.25v5.832031c0 .691631-.55837 1.25-1.25 1.25-.691631 0-1.25-.558369-1.25-1.25v-5.832031c0-.691631.558369-1.25 1.25-1.25z"/></g></svg>

<svg fill="#FFC107" height="48" version="1.1" viewBox="0 0 48 48" width="48" xmlns="http://www.w3.org/2000/svg"><path d="m8 12l-4 0 0 28c0 2.21 1.79 4 4 4l28 0 0-4-28 0 0-28z"/><path d="M16 4C13.79 4 12 5.79 12 8L12 32C12 34.21 13.79 36 16 36L40 36C42.21 36 44 34.21 44 32L44 8C44 5.79 42.21 4 40 4L16 4zM24.580078 10C24.686323 10 24.793754 10.039848 24.875 10.121094L26.111328 11.359375C26.782127 11.026059 27.532073 10.833984 28.332031 10.833984 29.127823 10.833984 29.874384 11.026319 30.541016 11.355469L31.773438 10.126953C31.935929 9.964462 32.198837 9.964462 32.361328 10.126953 32.52382 10.289445 32.52382 10.550399 32.361328 10.712891L31.273438 11.800781C32.519206 12.709067 33.332031 14.175737 33.332031 15.833984L23.333984 15.833984C23.333984 14.179904 24.141471 12.713234 25.378906 11.800781L24.287109 10.708984C24.124618 10.546493 24.124618 10.283585 24.287109 10.121094 24.368355 10.039848 24.473834 10 24.580078 10zM25.833984 13.333984L25.833984 14.167969 26.666016 14.167969 26.666016 13.333984 25.833984 13.333984zM30 13.333984L30 14.167969 30.832031 14.167969 30.832031 13.333984 30 13.333984zM21.25 16.667969C21.941631 16.667969 22.5 17.226338 22.5 17.917969L22.5 23.75C22.5 24.441631 21.941631 25 21.25 25 20.558369 25 20 24.441631 20 23.75L20 17.917969C20 17.226338 20.558369 16.667969 21.25 16.667969zM23.333984 16.667969L33.332031 16.667969 33.332031 25C33.332031 25.458309 32.958309 25.833984 32.5 25.833984L31.666016 25.833984 31.666016 28.75C31.666016 29.441631 31.107646 30 30.416016 30 29.724385 30 29.166016 29.441631 29.166016 28.75L29.166016 25.833984 27.5 25.833984 27.5 28.75C27.5 29.441631 26.941631 30 26.25 30 25.558369 30 25 29.441631 25 28.75L25 25.833984 24.166016 25.833984C23.707706 25.833984 23.333984 25.458309 23.333984 25L23.333984 16.667969zM35.416016 16.667969C36.107646 16.667969 36.666016 17.226338 36.666016 17.917969L36.666016 23.75C36.666016 24.441631 36.107646 25 35.416016 25 34.724385 25 34.166016 24.441631 34.166016 23.75L34.166016 17.917969C34.166016 17.226338 34.724385 16.667969 35.416016 16.667969z"/></svg>
